public/images/icons/navigation/notes.svg

<svg xmlns="http://www.w3.org/2000/svg" viewBox="0 0 50 50">
    <path d="M 26.984375 1.9863281 A 1.0001 1.0001 0 0 0 26.839844 2 L 7 2 L 7 48 L 43 48 L 43 47 L 43 2 L 35.167969 2 A 1.0001 1.0001 0 0 0 34.841797 2 L 27.154297 2 A 1.0001 1.0001 0 0 0 26.984375 1.9863281 z M 9 4 L 26 4 L 26 16 A 1.0001 1.0001 0 0 0 27.599609 16.800781 L 31 14.25 L 34.400391 16.800781 A 1.0001 1.0001 0 0 0 36 16 L 36 4 L 41 4 L 41 46 L 9 46 L 9 4 z M 28 4 L 34 4 L 34 14 L 31.599609 12.199219 A 1.0001 1.0001 0 0 0 30.400391 12.199219 L 28 14 L 28 4 z M 15 23 A 1.0001 1.0001 0 1 0 15 25 L 35 25 A 1.0001 1.0001 0 1 0 35 23 L 15 23 z M 15 28 A 1.0001 1.0001 0 1 0 15 30 L 30 30 A 1.0001 1.0001 0 1 0 30 28 L 15 28 z M 15 33 A 1.0001 1.0001 0 1 0 15 35 L 35 35 A 1.0001 1.0001 0 1 0 35 33 L 15 33 z M 15 38 A 1.0001 1.0001 0 1 0 15 40 L 30 40 A 1.0001 1.0001 0 1 0 30 38 L 15 38 z">
    </path>
</svg>

<svg xmlns="http://www.w3.org/2000/svg" viewBox="0 0 50 50"><path d="M26.984 1.986A1 1 0 0 0 26.84 2H7v46h36V2h-7.832a1 1 0 0 0-.326 0h-7.688a1 1 0 0 0-.17-.014zM9 4h17v12a1 1 0 0 0 1.6.8l3.4-2.55 3.4 2.55A1 1 0 0 0 36 16V4h5v42H9V4zm19 0h6v10l-2.4-1.8a1 1 0 0 0-1.2 0L28 14V4zM15 23a1 1 0 1 0 0 2h20a1 1 0 1 0 0-2H15zm0 5a1 1 0 1 0 0 2h15a1 1 0 1 0 0-2H15zm0 5a1 1 0 1 0 0 2h20a1 1 0 1 0 0-2H15zm0 5a1 1 0 1 0 0 2h15a1 1 0 1 0 0-2H15z"/></svg>
